X: 27749
T: Morning Star, The
R: hornpipe
M: 4/4
K: Gmajor
||GA|"G"B>A BG "C"E2 FG|"D"A>B AF D2 GA|"EM"B>A BG "C"EF GE|"G"D2 G2 G2 GA|
"G"B>A BG "C"E2 FG|"D"A>B AF D2 GA|"Em"B>A BG "C"EF (3GFE|"G" D2 G2 G3 A|
"G"B>A Bd "C"ef ge|"G"dc BA G3 A|"G"B>A Bd "C"ef ge|"D"f2 d2 d3 B|
"C"c>B cd ef ge|"G"dc BA G3 A|"Em"B>A BG "C"EF (3GFE|"G"D2 G2 G2||

